libs/ui/packages/crypto-icons/src/svg/SIB.svg

<svg width="24" height="24" viewBox="0 0 24 24" fill="none">
<path d="M12 3C7.02975 3 3 7.02975 3 12C3 16.9703 7.02975 21 12 21C16.9703 21 21 16.9703 21 12C21 9.61305 20.0518 7.32387 18.364 5.63604C16.6761 3.94821 14.3869 3 12 3ZM15.132 15.3953H14.766V17.4443H13.536V15.3953H11.6632V14.634H13.566V13.2585C12.5781 13.809 11.4282 13.9954 10.317 13.785C9.702 13.6387 9.08775 13.3028 8.766 12.7463C8.4603 12.2021 8.30837 11.5851 8.3265 10.9612V7.71225H9.57075V11.0782C9.6 11.8095 10.068 12.5415 10.7857 12.7612C11.7296 12.978 12.7208 12.8204 13.551 12.3218C13.551 11.2973 13.536 9.76125 13.551 7.71225H14.8095V14.6348H15.132V15.3953Z" fill="#057BC1"/>
</svg>

<svg width="24" height="24" viewBox="0 0 24 24" fill="none"><path fill="#057bc1" d="M12 3a9 9 0 1 0 0 18 9 9 0 0 0 0-18m3.132 12.395h-.366v2.05h-1.23v-2.05h-1.873v-.761h1.903v-1.376a4.83 4.83 0 0 1-3.249.527c-.615-.146-1.23-.482-1.551-1.039a3.44 3.44 0 0 1-.44-1.785V7.712h1.245v3.366c.029.732.497 1.463 1.215 1.683.944.217 1.935.06 2.765-.44 0-1.024-.015-2.56 0-4.609h1.258v6.923h.323z"/></svg>
